img/raw/icons/YouTube_Play Button.svg

<?xml version="1.0" encoding="UTF-8"?>
<svg xmlns="http://www.w3.org/2000/svg" xmlns:xlink="http://www.w3.org/1999/xlink" width="500pt" height="500pt" viewBox="0 0 500 500" version="1.1">
<g id="surface1">
<path style=" stroke:none;fill-rule:nonzero;fill:#5B5B5B;fill-opacity:1;" d="M 448.984375 145 C 445 123.007813 426.015625 106.992188 403.984375 101.992188 C 371.015625 95 310 90 243.984375 90 C 178.007813 90 116.015625 95 83.007813 101.992188 C 61.015625 106.992188 41.992188 121.992188 38.007813 145 C 33.984375 170 30 205 30 250 C 30 295 33.984375 330 38.984375 355 C 43.007813 376.992188 61.992188 393.007813 83.984375 398.007813 C 118.984375 405 178.984375 410 245 410 C 311.015625 410 371.015625 405 406.015625 398.007813 C 428.007813 393.007813 446.992188 378.007813 451.015625 355 C 455 330 460 293.984375 461.015625 250 C 458.984375 205 453.984375 170 448.984375 145 Z M 190 320 L 190 180 L 311.992188 250 Z "/>
</g>
</svg>

<?xml version="1.0" encoding="utf-8"?>
<!-- Generator: Adobe Illustrator 23.0.2, SVG Export Plug-In . SVG Version: 6.00 Build 0)  -->
<svg version="1.1" id="Layer_1" xmlns="http://www.w3.org/2000/svg" xmlns:xlink="http://www.w3.org/1999/xlink" x="0px" y="0px"
	 viewBox="0 0 500 500" style="enable-background:new 0 0 500 500;" xml:space="preserve">
<style type="text/css">
	.st0{fill:#FF0000;}
</style>
<g id="surface1">
	<path class="st0" d="M449,145c-4-22-23-38-45-43c-33-7-94-12-160-12c-66,0-128,5-161,12c-22,5-41,20-45,43c-4,25-8,60-8,105
		s4,80,9,105c4,22,23,38,45,43c35,7,95,12,161,12s126-5,161-12c22-5,41-20,45-43c4-25,9-61,10-105C459,205,454,170,449,145z
		 M190,320V180l122,70L190,320z"/>
</g>
</svg>
